X:11
T:Connaughtman's Rambles, The
M:6/8
Z:Seattle
Z:From O'Neill's
R:jig
K:D
AG|FAA dAA|BAB dAG|FAA dfe|dBB BAG|FAA dAA|BAB def|gfe dfe|dBB B2:|
e|fbb faa|fef d2e|fbb faa|fed ede|fbb afe|dBc def|gfe dfe|dBB B2:|
<end>
<start>
